X: 1
T:Bird Catchers. WCl.04
M:2/4
L:1/8
Q:240
S:William Clarke MS,Lincoln,1770.
R:Country Dance.
O:Lincoln
A:England
Z:vmp.Barry Callaghan
K:D
d2 (d/2c/2d/2e/2)|d2A2|fage|fage|d2 (d/2c/2d/2e/2)|d2 A2|dagf|f2e2::!
a2 a2|a2 gf|efge|dcBA|a2 a2|a2 gf|edef|e2d2:||
